fs/tv_usb_16_regular.svg

<svg viewBox="0 0 16 16" fill="none" xmlns="http://www.w3.org/2000/svg" height="1em" width="1em">
  <path d="M4 3C2.89543 3 2 3.89543 2 5V9C2 10.1046 2.89543 11 4 11H8.02797C8.00945 10.8904 8 10.7789 8 10.6667V10H4C3.44772 10 3 9.55228 3 9V5C3 4.44772 3.44772 4 4 4H13.5C13.583 4 13.6644 4.00674 13.7437 4.01969C13.4008 3.41105 12.7484 3 12 3H4ZM4.5 12H8.5L9.25 13H4.5C4.22386 13 4 12.7761 4 12.5C4 12.2239 4.22386 12 4.5 12ZM10.5 13L9.2 11.2667C9.13875 11.185 9.09078 11.095 9.05719 11C9.01958 10.8936 9 10.781 9 10.6667V8C9 7.72386 9.22386 7.5 9.5 7.5H10V5.5C10 5.22386 10.2239 5 10.5 5H13.5C13.7761 5 14 5.22386 14 5.5V7.5H14.5C14.7761 7.5 15 7.72386 15 8V10.6667C15 10.883 14.9298 11.0936 14.8 11.2667L13.5 13V14.5C13.5 14.7761 13.2761 15 13 15H11C10.7239 15 10.5 14.7761 10.5 14.5V13ZM11 6V7.5H13V6H11Z" fill="#212121"/>
</svg>

<svg viewBox="0 0 16 16" fill="none" xmlns="http://www.w3.org/2000/svg" height="1em" width="1em">
  <path d="M4 3a2 2 0 0 0-2 2v4a2 2 0 0 0 2 2h4.028A2 2 0 0 1 8 10.667V10H4a1 1 0 0 1-1-1V5a1 1 0 0 1 1-1h9.5c.083 0 .164.007.244.02A2 2 0 0 0 12 3H4Zm.5 9h4l.75 1H4.5a.5.5 0 0 1 0-1Zm6 1-1.3-1.733a1 1 0 0 1-.2-.6V8a.5.5 0 0 1 .5-.5h.5v-2a.5.5 0 0 1 .5-.5h3a.5.5 0 0 1 .5.5v2h.5a.5.5 0 0 1 .5.5v2.667a1 1 0 0 1-.2.6L13.5 13v1.5a.5.5 0 0 1-.5.5h-2a.5.5 0 0 1-.5-.5V13Zm.5-7v1.5h2V6h-2Z" fill="#212121"/>
</svg>
